X:1
T:2 Ecossaises
T:Two Ecossaises
T:Op.33 (D.783)
T:Franz Schubert
T:Public Domain (PianoXML typeset) | 18 German Dances and Ecossaises Op. 33 (D.783) - 1824
C:Franz Schubert
Z:Public Domain (PianoXML typeset) | 18 German Dances and Ecossaises Op. 33 (D.783) - 1824
%%score { ( 1 3 4 ) | 2 }
L:1/8
Q:1/4=132
M:2/4
K:D
V:1 treble nm="Piano" snm="Pno."
V:3 treble 
V:4 treble 
V:2 bass 
V:1
!mf!"^NO.1""^Allegro moderato" (!>![DFB]2 .[EFc]) z | (!>![EFc]2 .[Fd]) z | (!>![Fd]2 .[Ge]) z | %3
 !>![Fd]4 | (!>![EFc]2 .[Fd]) z | !>![EFc]4 | (!>![DF]2 .[EFc]) z |!>(! !>![DFB]4!>)! :: %8
!f! (!>![FBd]2 [Ace]) z | (!>![Ace]2 .[Adf]) z | (([Adf]2 .[Bdg])) z | !>![Adf]4 | %12
!mf! ([cea]A[dfa]A | [cea])!<(!(ABc!<)! |!f! d)!>(!(d'c'a!>)! |!mp! .d'2) z2 :| %16
[M:2/4]"^NO.2"!f![Q:1/4=132] (!1!B,DCD | .B,2) .!4!F2 | .B,2 !wedge![B,DG]2 | !>!!4
2
1![A,DF]4 | %20
 !tenuto![Aa]4- | .[Afa]2 .[A=da]2 | .[Aea]2 .[Aca]2 | [Ada]4 ::!mf! B!3!f^ef | (!4!a2 .g) z | b4 | %27
 b4 |!f! A!3!e^de | .a2 .=d2 |!<(! .b2 .c2!<)! | [Fd]4 :| %32
V:2
"_2nd time p (soft)"!ped! (B,,F,^E,!ped-up!F,) |!ped! (B,,F,^E,!ped-up!F,) | %2
!ped! (B,,F,^E,!ped-up!F,) |!ped! (B,,F,^E,!ped-up!F,) |!ped! (F,,F,^E,!ped-up!F,) | %5
!ped! (F,,!p!F,^E,!ped-up!F,) |!ped! (B,,F,^E,!ped-up!F,) |!ped! (B,,F,^E,!ped-up!F,) :: %8
!ped! ([B,,B,]2 .[A,,A,])!ped-up! z | ([A,,A,]2 .[D,,D,]) z | %10
!ped! ([D,,D,]2 .[G,,,G,,])!ped-up! z |!ped! !>![D,,D,]4!ped-up! | %12
!ped! ([A,E]2!ped! [DF]2!ped-up! |!ped! [A,E]4)!ped-up! |!ped! .[D,F,D]2 .[A,E]2!ped-up! | %15
!ped! .[D,F,D]2 z2!ped-up! :|[M:2/4] (B,,D,C,D, | .B,,2) .F,2 | .B,,2 !wedge!G,,2 | !>!D,4 | %20
!ped! .A,,2!ped-up!!ped! .[A,CG]2 | .D,2 .[A,DF]2 | .A,,2 .[A,EG]2 |!ped! [DF]4!ped-up! :: %24
!ped! .B,,2[K:treble]!ped-up!!ped! .[B,^DA]2!ped-up! |[K:bass] .E,2[K:treble] .[B,EG]2 | %26
[K:bass] .B,,2[K:treble] .[B,^DA]2 |[K:bass] .E,2[K:treble] .[B,EG]2 | %28
[K:bass]!ped! (A,,C,^B,,C,!ped-up! | .D,2) .[F,,F,]2 | .[G,,G,]2 .[A,,A,]2 | %31
!ped! [D,A,]4!ped-up! :| %32
V:3
 x4 | x4 | x4 | x4 | x4 | x4 | x4 | x4 :: x4 | x4 | x4 | x4 | x4 | x4 | x4 | x4 :|[M:2/4] x4 | x4 | %18
 x4 | x4 | Ae^de | x4 | x4 | x4 :: x4 | b4 | B4 | B4 | x4 | x4 | x4 | x4 :| %32
V:4
 x4 | x4 | x4 | x4 | x4 | x4 | x4 | x4 :: x4 | x4 | x4 | x4 | x4 | x4 | x4 | x4 :|[M:2/4] x4 | x4 | %18
 x4 | x4 | x4 | x4 | x4 | x4 :: [Bb]4- | B4 | (g2 .f) z | (f2 .e) z | !tenuto![Aa]4- | [Af]2 A2 | %30
 [Be]2 G2 | x4 :| %32

